X: 1
T: Pewter Plug, The
M: 6/8
L: 1/8
R: jig
K: Bmin
Bde f2f | gfe f2f | gfd ecA | Bgf edc |
Bde f2f | gfe f2d| Bcd cBA | FBA B3 :|
dBF Gdf | g3 fdf | g3 gab | bag fde |
dBF Bdf | gag f2f | gag fdc | Bdc d3 |
dBF Gdf | g3 fdf | g3 gab | bag fde |
dBF Bdf | gag f2f | gag fdc | BAF B3 ||
